X:8
T:A yowe cam' to wir door yarmin'
S:Alistair Cochrane
R:Reel
O:Shetland
M:4/4
K:ADor
E2 DE CD E2 | G2 E2 G2 E2 | \
E2 DE CD E2 | cA BG A4 :|*
|:c2 dc B2 G2 | c2 Ac B2 G2 | \
cd ef g2 d2 | cA BG A4 :|**
